mc/waste-theme/assets/themes/natuurpunt/parkingwheels.svg

<svg xmlns="http://www.w3.org/2000/svg" viewBox="-24 7 60 1">
    <defs>
        <style>.cls-1{fill:#fff;}</style>
    </defs>
    <g id="Layer_2" data-name="Layer 2">
        <g id="Layer_1-2" data-name="Layer 1">
            <path class="cls-1"
                  d="M7.54,11.73a1,1,0,1,1,1-1A.95.95,0,0,1,7.54,11.73Zm3.37,4.9H7.82a1,1,0,0,1-1-.86l-.16-2.89a.92.92,0,1,1,1.83-.11l.06,1h1.78a.44.44,0,0,1,.44.43.44.44,0,0,1-.44.43H8.63l0,.54H11a.56.56,0,0,1,.46.27l1.73,2.92a.56.56,0,0,1-.19.76.57.57,0,0,1-.77-.19Zm0,.86.53.89A3.58,3.58,0,1,1,6.35,14l0,.87A2.83,2.83,0,1,0,11,17.49Z"/>
            <path class="cls-1"
                  d="M9.25,2.5h0a3,3,0,0,0-.8-1.29A4,4,0,0,0,6.92.33,7.23,7.23,0,0,0,4.55,0H.45A.45.45,0,0,0,0,.45V12.12a.45.45,0,0,0,.45.45h2a.45.45,0,0,0,.45-.45V8.26a0,0,0,0,1,0,0H4.62a7,7,0,0,0,2.32-.34A3.92,3.92,0,0,0,8.45,7a3.23,3.23,0,0,0,.8-1.37A5.55,5.55,0,0,0,9.47,4,5,5,0,0,0,9.25,2.5ZM6.87,4.87h0a1.36,1.36,0,0,1-.41.68A2,2,0,0,1,5.69,6a3.84,3.84,0,0,1-1.16.15H3a.45.45,0,0,1-.45-.45V2.54A.45.45,0,0,1,3,2.09H4.51a4.7,4.7,0,0,1,1.16.13,2.22,2.22,0,0,1,.77.38,1.43,1.43,0,0,1,.42.64A2.88,2.88,0,0,1,7,4.05,3.54,3.54,0,0,1,6.87,4.87Z"/>
        </g>
    </g>
</svg>

<?xml version="1.0" encoding="UTF-8" standalone="no"?>
<svg
   viewBox="-24 7 13.266731 20.714458"
   version="1.1"
   id="svg12"
   sodipodi:docname="parkingwheels.svg"
   width="13.266731"
   height="20.714458"
   inkscape:version="1.1.1 (1:1.1+202109281949+c3084ef5ed)"
   xmlns:inkscape="http://www.inkscape.org/namespaces/inkscape"
   xmlns:sodipodi="http://sodipodi.sourceforge.net/DTD/sodipodi-0.dtd"
   xmlns="http://www.w3.org/2000/svg"
   xmlns:svg="http://www.w3.org/2000/svg">
  <sodipodi:namedview
     id="namedview14"
     pagecolor="#505050"
     bordercolor="#eeeeee"
     borderopacity="1"
     inkscape:pageshadow="0"
     inkscape:pageopacity="0"
     inkscape:pagecheckerboard="0"
     showgrid="false"
     inkscape:zoom="26.9"
     inkscape:cx="5.9851301"
     inkscape:cy="7.4907063"
     inkscape:current-layer="svg12" />
  <defs
     id="defs4">
    <style
       id="style2">.cls-1{fill:#fff;}</style>
  </defs>
  <g
     id="Layer_2"
     data-name="Layer 2"
     transform="translate(-24,7.0028128)">
    <g
       id="Layer_1-2"
       data-name="Layer 1">
      <path
         class="cls-1"
         d="m 7.54,11.73 a 1,1 0 1 1 1,-1 0.95,0.95 0 0 1 -1,1 z m 3.37,4.9 H 7.82 a 1,1 0 0 1 -1,-0.86 L 6.66,12.88 a 0.92,0.92 0 1 1 1.83,-0.11 l 0.06,1 h 1.78 a 0.44,0.44 0 0 1 0.44,0.43 0.44,0.44 0 0 1 -0.44,0.43 h -1.7 v 0.54 H 11 a 0.56,0.56 0 0 1 0.46,0.27 l 1.73,2.92 A 0.56,0.56 0 0 1 13,19.12 0.57,0.57 0 0 1 12.23,18.93 Z m 0,0.86 0.53,0.89 A 3.58,3.58 0 1 1 6.35,14 v 0.87 A 2.83,2.83 0 1 0 11,17.49 Z"
         id="path6" />
      <path
         class="cls-1"
         d="m 9.25,2.5 v 0 A 3,3 0 0 0 8.45,1.21 4,4 0 0 0 6.92,0.33 7.23,7.23 0 0 0 4.55,0 H 0.45 A 0.45,0.45 0 0 0 0,0.45 v 11.67 a 0.45,0.45 0 0 0 0.45,0.45 h 2 A 0.45,0.45 0 0 0 2.9,12.12 V 8.26 H 4.62 A 7,7 0 0 0 6.94,7.92 3.92,3.92 0 0 0 8.45,7 3.23,3.23 0 0 0 9.25,5.63 5.55,5.55 0 0 0 9.47,4 5,5 0 0 0 9.25,2.5 Z M 6.87,4.87 v 0 A 1.36,1.36 0 0 1 6.46,5.55 2,2 0 0 1 5.69,6 3.84,3.84 0 0 1 4.53,6.15 H 3 A 0.45,0.45 0 0 1 2.55,5.7 V 2.54 A 0.45,0.45 0 0 1 3,2.09 H 4.51 A 4.7,4.7 0 0 1 5.67,2.22 2.22,2.22 0 0 1 6.44,2.6 1.43,1.43 0 0 1 6.86,3.24 2.88,2.88 0 0 1 7,4.05 3.54,3.54 0 0 1 6.87,4.87 Z"
         id="path8" />
    </g>
  </g>
</svg>
